communes/3213.svg

<?xml version="1.0" encoding="UTF-8" standalone="no"?>
<!-- Created with Inkscape (http://www.inkscape.org/) -->

<svg
   xmlns:dc="http://purl.org/dc/elements/1.1/"
   xmlns:cc="http://creativecommons.org/ns#"
   xmlns:rdf="http://www.w3.org/1999/02/22-rdf-syntax-ns#"
   xmlns:svg="http://www.w3.org/2000/svg"
   xmlns="http://www.w3.org/2000/svg"
   xmlns:sodipodi="http://sodipodi.sourceforge.net/DTD/sodipodi-0.dtd"
   xmlns:inkscape="http://www.inkscape.org/namespaces/inkscape"
   version="1.0"
   width="208.86046"
   height="244.65999"
   id="svg2780"
   inkscape:version="0.92.4 (5da689c313, 2019-01-14)"
   sodipodi:docname="Goldach-blazon.svg">
  <metadata
     id="metadata27">
    <rdf:RDF>
      <cc:Work
         rdf:about="">
        <dc:format>image/svg+xml</dc:format>
        <dc:type
           rdf:resource="http://purl.org/dc/dcmitype/StillImage" />
        <dc:title></dc:title>
      </cc:Work>
    </rdf:RDF>
  </metadata>
  <sodipodi:namedview
     pagecolor="#ffffff"
     bordercolor="#666666"
     borderopacity="1"
     objecttolerance="10"
     gridtolerance="10"
     guidetolerance="10"
     inkscape:pageopacity="0"
     inkscape:pageshadow="2"
     inkscape:window-width="3236"
     inkscape:window-height="1417"
     id="namedview25"
     showgrid="false"
     inkscape:zoom="1.4142136"
     inkscape:cx="-126.6986"
     inkscape:cy="50.757098"
     inkscape:window-x="-8"
     inkscape:window-y="-8"
     inkscape:window-maximized="1"
     inkscape:current-layer="svg2780"
     inkscape:measure-start="104.255,149.787"
     inkscape:measure-end="104.255,126.383"
     showguides="true"
     inkscape:object-paths="true"
     inkscape:snap-intersection-paths="true"
     inkscape:snap-global="false" />
  <defs
     id="defs2782" />
  <path
     inkscape:connector-curvature="0"
     style="fill:#1b63c6;fill-opacity:1;fill-rule:evenodd;stroke:#000000;stroke-width:1.99999988;stroke-linecap:butt;stroke-miterlimit:4;stroke-dashoffset:0;stroke-opacity:1"
     id="path4212"
     d="m 1,1 3.761095,158.00304 c 2.686489,112.85918 196.651755,112.85918 199.338255,0 L 207.86045,1 Z" />
  <path
     id="path10251-9-4-4"
     style="fill:#feeb00;fill-opacity:1;fill-rule:evenodd;stroke:#000000;stroke-width:1px;stroke-linecap:butt;stroke-linejoin:miter;stroke-opacity:1"
     d="m 205.1079,107.99686 c -10.85833,-2.77777 -20.74545,-16.193856 -31.62936,-15.7885 -12.06207,0.449273 -20.61043,15.84806 -32.97607,16.30389 C 128.11871,108.501 117.22325,91.772774 104.83911,92.229277 92.52738,92.683121 83.979023,108.08191 71.613393,108.53773 59.229627,108.52647 48.334159,91.798248 36.199678,92.25018 24.137614,92.699453 15.589256,108.09824 3.2236107,108.55407 L 3.046834,72.308324 C 15.412479,71.852499 24.137614,56.453706 36.199678,56.004433 48.334159,55.552501 59.229627,72.280728 71.613393,72.291981 83.979023,71.836168 92.52738,56.437374 104.83911,55.98353 c 12.38414,-0.456503 23.2796,16.271724 35.66336,16.282977 12.36564,-0.455828 20.914,-15.854659 32.97607,-16.303894 11.21986,-0.417868 21.38046,13.852174 32.63769,16.014604"
     inkscape:connector-curvature="0"
     sodipodi:nodetypes="cccsccccscccsc" />
  <path
     id="path10251-9-4-4-0"
     style="fill:#feeb00;fill-opacity:1;fill-rule:evenodd;stroke:#000000;stroke-width:1px;stroke-linecap:butt;stroke-linejoin:miter;stroke-opacity:1"
     d="m 201.22406,179.07329 c -9.37014,-4.38488 -18.17224,-14.72147 -27.74552,-14.36493 -12.06207,0.44927 -20.61043,15.84806 -32.97607,16.30389 -12.38376,-0.0112 -23.27922,-16.73948 -35.66336,-16.28297 -12.311731,0.45384 -20.860091,15.85263 -33.225721,16.30845 -12.38376,-0.0113 -23.27923,-16.73948 -35.41371,-16.28755 -10.581226,0.39411 -18.45853,12.29241 -28.5807789,15.51565 -3.247893,-10.78349 -3.361399,-21.83306 -3.1280186,-35.5569 11.6927545,-1.40177 20.0631245,-15.77073 31.7087975,-16.20449 12.134479,-0.45197 23.02995,16.27629 35.41371,16.28754 12.36563,-0.45581 20.91399,-15.8546 33.225721,-16.30845 12.38414,-0.4565 23.2796,16.27173 35.66336,16.28298 12.36564,-0.45583 20.914,-15.85465 32.97607,-16.30389 10.6107,-0.39519 20.27403,12.34593 30.81346,15.5596 -0.0733,13.36325 -0.0171,26.95581 -3.06794,35.05107 z"
     inkscape:connector-curvature="0"
     sodipodi:nodetypes="cccsccccscccscc" />
  <path
     inkscape:connector-curvature="0"
     style="fill:none;fill-opacity:1;fill-rule:evenodd;stroke:#000000;stroke-width:1.99999988;stroke-linecap:butt;stroke-miterlimit:4;stroke-dashoffset:0;stroke-opacity:1"
     id="path4212-5"
     d="M 1,0.99999834 4.761095,159.00304 c 2.686489,112.85918 196.651755,112.85918 199.338255,0 l 3.7611,-158.00304166 z" />
</svg>

<?xml version="1.0" encoding="UTF-8"?>
<svg version="1.0" viewBox="0 0 208.86 244.66" xmlns="http://www.w3.org/2000/svg" xmlns:cc="http://creativecommons.org/ns#" xmlns:dc="http://purl.org/dc/elements/1.1/" xmlns:rdf="http://www.w3.org/1999/02/22-rdf-syntax-ns#">
<metadata>
<rdf:RDF>
<cc:Work rdf:about="">
<dc:format>image/svg+xml</dc:format>
<dc:type rdf:resource="http://purl.org/dc/dcmitype/StillImage"/>
<dc:title/>
</cc:Work>
</rdf:RDF>
</metadata>
<path d="m1 1 3.7611 158c2.6865 112.86 196.65 112.86 199.34 0l3.7611-158z" fill="#1b63c6" fill-rule="evenodd" stroke="#000" stroke-width="2"/>
<path d="m205.11 108c-10.858-2.7778-20.745-16.194-31.629-15.788-12.062 0.44927-20.61 15.848-32.976 16.304-12.384-0.01125-23.279-16.739-35.663-16.283-12.312 0.45384-20.86 15.853-33.226 16.308-12.384-0.01126-23.279-16.739-35.414-16.288-12.062 0.44927-20.61 15.848-32.976 16.304l-0.17678-36.246c12.366-0.45582 21.091-15.855 33.153-16.304 12.134-0.45193 23.03 16.276 35.414 16.288 12.366-0.45581 20.914-15.855 33.226-16.308 12.384-0.4565 23.28 16.272 35.663 16.283 12.366-0.45583 20.914-15.855 32.976-16.304 11.22-0.41787 21.38 13.852 32.638 16.015" fill="#feeb00" fill-rule="evenodd" stroke="#000" stroke-width="1px"/>
<path d="m201.22 179.07c-9.3701-4.3849-18.172-14.721-27.746-14.365-12.062 0.44927-20.61 15.848-32.976 16.304-12.384-0.0112-23.279-16.739-35.663-16.283-12.312 0.45384-20.86 15.853-33.226 16.308-12.384-0.0113-23.279-16.739-35.414-16.288-10.581 0.39411-18.459 12.292-28.581 15.516-3.2479-10.783-3.3614-21.833-3.128-35.557 11.693-1.4018 20.063-15.771 31.709-16.204 12.134-0.45197 23.03 16.276 35.414 16.288 12.366-0.45581 20.914-15.855 33.226-16.308 12.384-0.4565 23.28 16.272 35.663 16.283 12.366-0.45583 20.914-15.855 32.976-16.304 10.611-0.39519 20.274 12.346 30.813 15.56-0.0733 13.363-0.0171 26.956-3.0679 35.051z" fill="#feeb00" fill-rule="evenodd" stroke="#000" stroke-width="1px"/>
<path d="m1 1 3.7611 158c2.6865 112.86 196.65 112.86 199.34 0l3.7611-158z" fill="none" stroke="#000" stroke-width="2"/>
</svg>
